img/logo--black.svg

<svg height="19" viewBox="0 0 240 19" width="240" xmlns="http://www.w3.org/2000/svg"><g fill="none"><g fill="#e52228" transform="translate(151.047 .154175)"><path d="m16.9352 9.42117c0 1.39043-.2368 2.66573-.7104 3.82603-.464 1.1602-1.0875 2.1527-1.8704 2.9774-.783.8246-1.682 1.4671-2.6969 1.9273-1.015.4603-2.07826.6904-3.18988.6904s-2.17973-.2301-3.20436-.6904c-1.01495-.4602-1.91391-1.1027-2.69687-1.9273-.78297-.8247-1.40644-1.8172-1.870421-2.9774-.463979-1.1603-.695969-2.4356-.695969-3.82603 0-1.3904.23199-2.66573.695969-3.826.463981-1.16027 1.087451-2.15273 1.870421-2.97738.78296-.82465 1.68192-1.46711 2.69687-1.927383 1.02463-.460271 2.09274-.690407 3.20436-.690407s2.17488.230136 3.18988.690407c1.0149.460273 1.9139 1.102733 2.6969 1.927383.7829.82465 1.4064 1.81711 1.8704 2.97738.4736 1.16027.7104 2.4356.7104 3.826zm-15.44177 0c0 1.21783.18366 2.32533.55098 3.32263.37698.9876.88929 1.8362 1.53693 2.5458.64764.7 1.39194 1.2466 2.2329 1.6397.84096.3932 1.72542.5898 2.65338.5898s1.81238-.1966 2.65338-.5898c.841-.3931 1.5804-.9397 2.2184-1.6397.6476-.7096 1.16-1.5582 1.5369-2.5458.377-.9973.5655-2.1048.5655-3.32263 0-1.2178-.1885-2.32053-.5655-3.30819-.3769-.99726-.8893-1.84588-1.5369-2.54588-.638-.70958-1.3774-1.26095-2.2184-1.6541s-1.72542-.58972-2.65338-.58972-1.81242.19657-2.65338.58972-1.58526.94452-2.2329 1.6541c-.64764.7-1.15995 1.54862-1.53693 2.54588-.36732.98766-.55098 2.09039-.55098 3.30819z"/><path d="m33.856.143835v18.554665h-1.334l-10.251-15.76427v15.76427h-1.4789v-18.554665h1.3339l10.2511 15.749865v-15.749865z"/><path d="m49.7618 17.3752v1.3233h-10.8455v-18.554665h1.4789v17.231365z"/><path d="m54.1986 18.6985h-1.479v-18.554665h1.479z"/><path d="m72.3083.143835v18.554665h-1.334l-10.251-15.76427v15.76427h-1.4789v-18.554665h1.3339l10.251 15.749865v-15.749865z"/><path d="m88.9535 17.3752v1.3233h-11.585v-18.554665h11.2805v1.323275h-9.8015v6.91845h9.0621v1.32328h-9.0621v7.66636z"/></g><g fill="#333"><path d="m16.0351.294583h3.8603v18.558117h-4.3057v-9.27905l-4.3057 9.27905h-2.67255l-4.30572-9.27905v9.27905h-4.30573v-18.558117h3.86031l6.08741 13.108517z"/><path d="m23.46.294583h13.3626v4.124027h-9.0569v2.94574h8.3145v4.12405h-8.3145v3.2403h9.3538v4.124h-13.6595z"/><path d="m55.8144.294583v18.558117h-3.8603l-7.5722-10.89921v10.89921h-4.3057v-18.558117h3.8603l7.5722 10.899217v-10.899217z"/><path d="m67.5554 18.8527h-4.3057v-14.43409h-5.3451v-4.124027h14.9958v4.124027h-5.345z"/><path d="m87.6248 9.57365c0-.76589-.1287-1.47287-.386-2.12093-.2574-.64806-.6137-1.20775-1.069-1.67907-.4356-.47132-.9503-.83462-1.5442-1.08992-.5938-.27494-1.2273-.4124-1.9004-.4124s-1.3066.13746-1.9005.4124c-.5939.2553-1.1185.6186-1.5738 1.08992-.4355.47132-.782 1.03101-1.0393 1.67907-.2574.64806-.386 1.35504-.386 2.12093 0 .76585.1286 1.47285.386 2.12095.2573.648.6038 1.2077 1.0393 1.679.4553.4714.9799.8445 1.5738 1.1194.5939.2553 1.2274.383 1.9005.383s1.3066-.1277 1.9004-.383c.5939-.2749 1.1086-.648 1.5442-1.1194.4553-.4713.8116-1.031 1.069-1.679.2573-.6481.386-1.3551.386-2.12095zm4.3057 0c0 1.33535-.2474 2.57265-.7423 3.71165-.4752 1.139-1.1284 2.1405-1.9599 3.0046-.8314.8445-1.8114 1.5122-2.9398 2.0031-1.1086.4713-2.2963.707-3.5633.707s-2.4647-.2357-3.5931-.707c-1.1086-.4909-2.0786-1.1586-2.9101-2.0031-.8314-.8641-1.4946-1.8656-1.9895-3.0046-.4751-1.139-.7127-2.3763-.7127-3.71165 0-1.31576.2376-2.54315.7127-3.68217.4949-1.15866 1.1581-2.16021 1.9895-3.00465.8315-.86408 1.8015-1.53178 2.9101-2.0031 1.1284-.490956 2.3261-.736434 3.5931-.736434s2.4547.245478 3.5633.736434c1.1284.47132 2.1084 1.13902 2.9398 2.0031.8315.84444 1.4847 1.84599 1.9599 3.00465.4949 1.13902.7423 2.36641.7423 3.68217z"/><path d="m102.166.294583c.97 0 1.851.157106 2.643.471317.811.31421 1.504.73643 2.078 1.26667.574.53023 1.02 1.15865 1.337 1.88527.316.70697.475 1.46305.475 2.26821 0 1.04083-.188 1.91473-.564 2.62171-.357.70697-.763 1.28634-1.218 1.73794-.435.4321-.841.7463-1.217.9427-.377.1964-.565.2945-.565.2945l4.158 7.0698h-4.752l-3.414-6.186h-2.2275v6.186h-4.3057v-18.558117zm0 8.248057c.752 0 1.336-.19638 1.752-.58915.416-.39276.623-.88372.623-1.47286 0-.58915-.207-1.08011-.623-1.47287-.416-.39277-1-.58915-1.752-.58915h-3.2665v4.12403z"/><path d="m111.529.294583h13.363v4.124027h-9.057v2.94574h8.314v4.12405h-8.314v3.2403h9.354v4.124h-13.66z"/><path d="m127.403 5.44962c0-.70698.148-1.37468.445-2.0031.317-.64806.762-1.20775 1.337-1.67907.574-.49096 1.267-.88372 2.078-1.178294.832-.294573 1.772-.44186 2.821-.44186 1.01 0 1.911.147287 2.702.44186.812.294574 1.495.706974 2.049 1.237204.574.53024 1.01 1.15866 1.307 1.88528.317.70697.475 1.48268.475 2.32713l-4.157.29457c0-.74625-.208-1.32558-.624-1.73798-.416-.41241-1-.61861-1.752-.61861-.673 0-1.217.18656-1.633.55969-.396.35349-.594.75607-.594 1.20775s.228.79535.683 1.03101 1.02.4615 1.693.67752c.693.19638 1.435.4124 2.227.64806s1.524.56951 2.197 1.00155c.693.43204 1.267 1.00157 1.722 1.70857.456.7069.683 1.6201.683 2.7395 0 .7462-.158 1.4532-.475 2.1209-.297.6481-.742 1.2176-1.336 1.7085-.594.491-1.326.8838-2.197 1.1783-.871.2946-1.861.4419-2.97.4419-1.069 0-2.029-.1473-2.88-.4419-.851-.2945-1.574-.7069-2.168-1.2372-.574-.5498-1.019-1.1881-1.336-1.9147-.297-.7462-.446-1.5612-.446-2.445l4.158-.2945c0 1.6692.891 2.5038 2.672 2.5038.832 0 1.455-.1865 1.871-.5596.435-.3928.653-.8445.653-1.3551 0-.4713-.227-.8346-.683-1.0899-.455-.2553-1.029-.491-1.722-.707-.673-.216-1.406-.4418-2.197-.6775-.792-.2357-1.535-.5597-2.228-.97209-.673-.43204-1.237-.99173-1.692-1.67907s-.683-1.58088-.683-2.68062z"/><path clip-rule="evenodd" d="m91.2625 13.138c.4951-1.1391.7426-2.3762.7426-3.71165 0-1.31575-.2475-2.54313-.7426-3.68217-.4752-1.15865-1.128-2.1602-1.9595-3.00464-.8315-.86409-1.8117-1.53178-2.9397-2.003092-1.109-.490965-2.2969-.736448-3.5636-.736448-1.2666 0-2.4645.245483-3.5935.736448-1.108.471312-2.0782 1.139002-2.9097 2.003092-.8315.84444-1.4943 1.84599-1.9894 3.00464-.4752 1.13904-.7128 2.36642-.7128 3.68217 0 1.33545.2376 2.57255.7128 3.71165.4951 1.139 1.1579 2.1405 1.9894 3.0046.8315.8445 1.8017 1.5122 2.9097 2.0031 1.129.4713 2.3269.707 3.5935.707 1.2667 0 2.4546-.2357 3.5636-.707 1.128-.4909 2.1082-1.1586 2.9397-2.0031.8315-.8641 1.4843-1.8656 1.9595-3.0046zm-10.9106.524 7.6733-4.39485-7.6733-4.39484z" fill-rule="evenodd"/></g></g></svg>

<svg width="240" height="19" viewBox="0 0 240 19" version="1.1" xmlns="http://www.w3.org/2000/svg" xmlns:xlink="http://www.w3.org/1999/xlink">
<g id="Canvas" fill="none">
<g id="logo--black">
<g id="ONLINE" transform="translate(151.047 0.154175)">
<path d="M 16.9352 9.42117C 16.9352 10.8116 16.6984 12.0869 16.2248 13.2472C 15.7608 14.4074 15.1373 15.3999 14.3544 16.2246C 13.5714 17.0492 12.6724 17.6917 11.6575 18.1519C 10.6425 18.6122 9.57924 18.8423 8.46762 18.8423C 7.356 18.8423 6.28789 18.6122 5.26326 18.1519C 4.24831 17.6917 3.34935 17.0492 2.56639 16.2246C 1.78342 15.3999 1.15995 14.4074 0.695969 13.2472C 0.23199 12.0869 0 10.8116 0 9.42117C 0 8.03077 0.23199 6.75544 0.695969 5.59517C 1.15995 4.4349 1.78342 3.44244 2.56639 2.61779C 3.34935 1.79314 4.24831 1.15068 5.26326 0.690407C 6.28789 0.230136 7.356 0 8.46762 0C 9.57924 0 10.6425 0.230136 11.6575 0.690407C 12.6724 1.15068 13.5714 1.79314 14.3544 2.61779C 15.1373 3.44244 15.7608 4.4349 16.2248 5.59517C 16.6984 6.75544 16.9352 8.03077 16.9352 9.42117ZM 1.49343 9.42117C 1.49343 10.639 1.67709 11.7465 2.04441 12.7438C 2.42139 13.7314 2.9337 14.58 3.58134 15.2896C 4.22898 15.9896 4.97328 16.5362 5.81424 16.9293C 6.6552 17.3225 7.53966 17.5191 8.46762 17.5191C 9.39558 17.5191 10.28 17.3225 11.121 16.9293C 11.962 16.5362 12.7014 15.9896 13.3394 15.2896C 13.987 14.58 14.4994 13.7314 14.8763 12.7438C 15.2533 11.7465 15.4418 10.639 15.4418 9.42117C 15.4418 8.20337 15.2533 7.10064 14.8763 6.11298C 14.4994 5.11572 13.987 4.2671 13.3394 3.5671C 12.7014 2.85752 11.962 2.30615 11.121 1.913C 10.28 1.51985 9.39558 1.32328 8.46762 1.32328C 7.53966 1.32328 6.6552 1.51985 5.81424 1.913C 4.97328 2.30615 4.22898 2.85752 3.58134 3.5671C 2.9337 4.2671 2.42139 5.11572 2.04441 6.11298C 1.67709 7.10064 1.49343 8.20337 1.49343 9.42117Z" fill="#E52228"/>
<path d="M 33.856 0.143835L 33.856 18.6985L 32.522 18.6985L 22.271 2.93423L 22.271 18.6985L 20.7921 18.6985L 20.7921 0.143835L 22.126 0.143835L 32.3771 15.8937L 32.3771 0.143835L 33.856 0.143835Z" fill="#E52228"/>
<path d="M 49.7618 17.3752L 49.7618 18.6985L 38.9163 18.6985L 38.9163 0.143835L 40.3952 0.143835L 40.3952 17.3752L 49.7618 17.3752Z" fill="#E52228"/>
<path d="M 54.1986 18.6985L 52.7196 18.6985L 52.7196 0.143835L 54.1986 0.143835L 54.1986 18.6985Z" fill="#E52228"/>
<path d="M 72.3083 0.143835L 72.3083 18.6985L 70.9743 18.6985L 60.7233 2.93423L 60.7233 18.6985L 59.2444 18.6985L 59.2444 0.143835L 60.5783 0.143835L 70.8293 15.8937L 70.8293 0.143835L 72.3083 0.143835Z" fill="#E52228"/>
<path d="M 88.9535 17.3752L 88.9535 18.6985L 77.3685 18.6985L 77.3685 0.143835L 88.649 0.143835L 88.649 1.46711L 78.8475 1.46711L 78.8475 8.38556L 87.9096 8.38556L 87.9096 9.70884L 78.8475 9.70884L 78.8475 17.3752L 88.9535 17.3752Z" fill="#E52228"/>
</g>
<g id="Vector">
<path d="M 16.0351 0.294583L 19.8954 0.294583L 19.8954 18.8527L 15.5897 18.8527L 15.5897 9.57365L 11.284 18.8527L 8.61145 18.8527L 4.30573 9.57365L 4.30573 18.8527L 0 18.8527L 0 0.294583L 3.86031 0.294583L 9.94772 13.4031L 16.0351 0.294583Z" fill="#E52228"/>
<path d="M 16.0351 0.294583L 19.8954 0.294583L 19.8954 18.8527L 15.5897 18.8527L 15.5897 9.57365L 11.284 18.8527L 8.61145 18.8527L 4.30573 9.57365L 4.30573 18.8527L 0 18.8527L 0 0.294583L 3.86031 0.294583L 9.94772 13.4031L 16.0351 0.294583Z" fill="#333333"/>
<path d="M 23.46 0.294583L 36.8226 0.294583L 36.8226 4.41861L 27.7657 4.41861L 27.7657 7.36435L 36.0802 7.36435L 36.0802 11.4884L 27.7657 11.4884L 27.7657 14.7287L 37.1195 14.7287L 37.1195 18.8527L 23.46 18.8527L 23.46 0.294583Z" fill="#E52228"/>
<path d="M 23.46 0.294583L 36.8226 0.294583L 36.8226 4.41861L 27.7657 4.41861L 27.7657 7.36435L 36.0802 7.36435L 36.0802 11.4884L 27.7657 11.4884L 27.7657 14.7287L 37.1195 14.7287L 37.1195 18.8527L 23.46 18.8527L 23.46 0.294583Z" fill="#333333"/>
<path d="M 55.8144 0.294583L 55.8144 18.8527L 51.9541 18.8527L 44.3819 7.95349L 44.3819 18.8527L 40.0762 18.8527L 40.0762 0.294583L 43.9365 0.294583L 51.5087 11.1938L 51.5087 0.294583L 55.8144 0.294583Z" fill="#E52228"/>
<path d="M 55.8144 0.294583L 55.8144 18.8527L 51.9541 18.8527L 44.3819 7.95349L 44.3819 18.8527L 40.0762 18.8527L 40.0762 0.294583L 43.9365 0.294583L 51.5087 11.1938L 51.5087 0.294583L 55.8144 0.294583Z" fill="#333333"/>
<path d="M 67.5554 18.8527L 63.2497 18.8527L 63.2497 4.41861L 57.9046 4.41861L 57.9046 0.294583L 72.9004 0.294583L 72.9004 4.41861L 67.5554 4.41861L 67.5554 18.8527Z" fill="#E52228"/>
<path d="M 67.5554 18.8527L 63.2497 18.8527L 63.2497 4.41861L 57.9046 4.41861L 57.9046 0.294583L 72.9004 0.294583L 72.9004 4.41861L 67.5554 4.41861L 67.5554 18.8527Z" fill="#333333"/>
<path d="M 87.6248 9.57365C 87.6248 8.80776 87.4961 8.10078 87.2388 7.45272C 86.9814 6.80466 86.6251 6.24497 86.1698 5.77365C 85.7342 5.30233 85.2195 4.93903 84.6256 4.68373C 84.0318 4.40879 83.3983 4.27133 82.7252 4.27133C 82.0521 4.27133 81.4186 4.40879 80.8247 4.68373C 80.2308 4.93903 79.7062 5.30233 79.2509 5.77365C 78.8154 6.24497 78.4689 6.80466 78.2116 7.45272C 77.9542 8.10078 77.8256 8.80776 77.8256 9.57365C 77.8256 10.3395 77.9542 11.0465 78.2116 11.6946C 78.4689 12.3426 78.8154 12.9023 79.2509 13.3736C 79.7062 13.845 80.2308 14.2181 80.8247 14.493C 81.4186 14.7483 82.0521 14.876 82.7252 14.876C 83.3983 14.876 84.0318 14.7483 84.6256 14.493C 85.2195 14.2181 85.7342 13.845 86.1698 13.3736C 86.6251 12.9023 86.9814 12.3426 87.2388 11.6946C 87.4961 11.0465 87.6248 10.3395 87.6248 9.57365ZM 91.9305 9.57365C 91.9305 10.909 91.6831 12.1463 91.1882 13.2853C 90.713 14.4243 90.0598 15.4258 89.2283 16.2899C 88.3969 17.1344 87.4169 17.8021 86.2885 18.293C 85.1799 18.7643 83.9922 19 82.7252 19C 81.4582 19 80.2605 18.7643 79.1321 18.293C 78.0235 17.8021 77.0535 17.1344 76.222 16.2899C 75.3906 15.4258 74.7274 14.4243 74.2325 13.2853C 73.7574 12.1463 73.5198 10.909 73.5198 9.57365C 73.5198 8.25789 73.7574 7.0305 74.2325 5.89148C 74.7274 4.73282 75.3906 3.73127 76.222 2.88683C 77.0535 2.02275 78.0235 1.35505 79.1321 0.88373C 80.2605 0.392774 81.4582 0.147296 82.7252 0.147296C 83.9922 0.147296 85.1799 0.392774 86.2885 0.88373C 87.4169 1.35505 88.3969 2.02275 89.2283 2.88683C 90.0598 3.73127 90.713 4.73282 91.1882 5.89148C 91.6831 7.0305 91.9305 8.25789 91.9305 9.57365Z" fill="#E52228"/>
<path d="M 87.6248 9.57365C 87.6248 8.80776 87.4961 8.10078 87.2388 7.45272C 86.9814 6.80466 86.6251 6.24497 86.1698 5.77365C 85.7342 5.30233 85.2195 4.93903 84.6256 4.68373C 84.0318 4.40879 83.3983 4.27133 82.7252 4.27133C 82.0521 4.27133 81.4186 4.40879 80.8247 4.68373C 80.2308 4.93903 79.7062 5.30233 79.2509 5.77365C 78.8154 6.24497 78.4689 6.80466 78.2116 7.45272C 77.9542 8.10078 77.8256 8.80776 77.8256 9.57365C 77.8256 10.3395 77.9542 11.0465 78.2116 11.6946C 78.4689 12.3426 78.8154 12.9023 79.2509 13.3736C 79.7062 13.845 80.2308 14.2181 80.8247 14.493C 81.4186 14.7483 82.0521 14.876 82.7252 14.876C 83.3983 14.876 84.0318 14.7483 84.6256 14.493C 85.2195 14.2181 85.7342 13.845 86.1698 13.3736C 86.6251 12.9023 86.9814 12.3426 87.2388 11.6946C 87.4961 11.0465 87.6248 10.3395 87.6248 9.57365ZM 91.9305 9.57365C 91.9305 10.909 91.6831 12.1463 91.1882 13.2853C 90.713 14.4243 90.0598 15.4258 89.2283 16.2899C 88.3969 17.1344 87.4169 17.8021 86.2885 18.293C 85.1799 18.7643 83.9922 19 82.7252 19C 81.4582 19 80.2605 18.7643 79.1321 18.293C 78.0235 17.8021 77.0535 17.1344 76.222 16.2899C 75.3906 15.4258 74.7274 14.4243 74.2325 13.2853C 73.7574 12.1463 73.5198 10.909 73.5198 9.57365C 73.5198 8.25789 73.7574 7.0305 74.2325 5.89148C 74.7274 4.73282 75.3906 3.73127 76.222 2.88683C 77.0535 2.02275 78.0235 1.35505 79.1321 0.88373C 80.2605 0.392774 81.4582 0.147296 82.7252 0.147296C 83.9922 0.147296 85.1799 0.392774 86.2885 0.88373C 87.4169 1.35505 88.3969 2.02275 89.2283 2.88683C 90.0598 3.73127 90.713 4.73282 91.1882 5.89148C 91.6831 7.0305 91.9305 8.25789 91.9305 9.57365Z" fill="#333333"/>
<path d="M 102.166 0.294583C 103.136 0.294583 104.017 0.451689 104.809 0.7659C 105.62 1.08011 106.313 1.50233 106.887 2.03257C 107.461 2.5628 107.907 3.19122 108.224 3.91784C 108.54 4.62481 108.699 5.38089 108.699 6.18605C 108.699 7.22688 108.511 8.10078 108.135 8.80776C 107.778 9.51473 107.372 10.0941 106.917 10.5457C 106.482 10.9778 106.076 11.292 105.7 11.4884C 105.323 11.6848 105.135 11.7829 105.135 11.7829L 109.293 18.8527L 104.541 18.8527L 101.127 12.6667L 98.8995 12.6667L 98.8995 18.8527L 94.5938 18.8527L 94.5938 0.294583L 102.166 0.294583ZM 102.166 8.54264C 102.918 8.54264 103.502 8.34626 103.918 7.95349C 104.334 7.56073 104.541 7.06977 104.541 6.48063C 104.541 5.89148 104.334 5.40052 103.918 5.00776C 103.502 4.61499 102.918 4.41861 102.166 4.41861L 98.8995 4.41861L 98.8995 8.54264L 102.166 8.54264Z" fill="#E52228"/>
<path d="M 102.166 0.294583C 103.136 0.294583 104.017 0.451689 104.809 0.7659C 105.62 1.08011 106.313 1.50233 106.887 2.03257C 107.461 2.5628 107.907 3.19122 108.224 3.91784C 108.54 4.62481 108.699 5.38089 108.699 6.18605C 108.699 7.22688 108.511 8.10078 108.135 8.80776C 107.778 9.51473 107.372 10.0941 106.917 10.5457C 106.482 10.9778 106.076 11.292 105.7 11.4884C 105.323 11.6848 105.135 11.7829 105.135 11.7829L 109.293 18.8527L 104.541 18.8527L 101.127 12.6667L 98.8995 12.6667L 98.8995 18.8527L 94.5938 18.8527L 94.5938 0.294583L 102.166 0.294583ZM 102.166 8.54264C 102.918 8.54264 103.502 8.34626 103.918 7.95349C 104.334 7.56073 104.541 7.06977 104.541 6.48063C 104.541 5.89148 104.334 5.40052 103.918 5.00776C 103.502 4.61499 102.918 4.41861 102.166 4.41861L 98.8995 4.41861L 98.8995 8.54264L 102.166 8.54264Z" fill="#333333"/>
<path d="M 111.529 0.294583L 124.892 0.294583L 124.892 4.41861L 115.835 4.41861L 115.835 7.36435L 124.149 7.36435L 124.149 11.4884L 115.835 11.4884L 115.835 14.7287L 125.189 14.7287L 125.189 18.8527L 111.529 18.8527L 111.529 0.294583Z" fill="#E52228"/>
<path d="M 111.529 0.294583L 124.892 0.294583L 124.892 4.41861L 115.835 4.41861L 115.835 7.36435L 124.149 7.36435L 124.149 11.4884L 115.835 11.4884L 115.835 14.7287L 125.189 14.7287L 125.189 18.8527L 111.529 18.8527L 111.529 0.294583Z" fill="#333333"/>
<path d="M 127.403 5.44962C 127.403 4.74264 127.551 4.07494 127.848 3.44652C 128.165 2.79846 128.61 2.23877 129.185 1.76745C 129.759 1.27649 130.452 0.88373 131.263 0.589156C 132.095 0.294583 133.035 0.147296 134.084 0.147296C 135.094 0.147296 135.995 0.294583 136.786 0.589156C 137.598 0.88373 138.281 1.29613 138.835 1.82636C 139.409 2.3566 139.845 2.98502 140.142 3.71164C 140.459 4.41861 140.617 5.19432 140.617 6.03877L 136.46 6.33334C 136.46 5.58709 136.252 5.00776 135.836 4.59536C 135.42 4.18295 134.836 3.97675 134.084 3.97675C 133.411 3.97675 132.867 4.16331 132.451 4.53644C 132.055 4.88993 131.857 5.29251 131.857 5.74419C 131.857 6.19587 132.085 6.53954 132.54 6.7752C 132.995 7.01086 133.56 7.2367 134.233 7.45272C 134.926 7.6491 135.668 7.86512 136.46 8.10078C 137.252 8.33644 137.984 8.67029 138.657 9.10233C 139.35 9.53437 139.924 10.1039 140.379 10.8109C 140.835 11.5178 141.062 12.431 141.062 13.5504C 141.062 14.2966 140.904 15.0036 140.587 15.6713C 140.29 16.3194 139.845 16.8889 139.251 17.3798C 138.657 17.8708 137.925 18.2636 137.054 18.5581C 136.183 18.8527 135.193 19 134.084 19C 133.015 19 132.055 18.8527 131.204 18.5581C 130.353 18.2636 129.63 17.8512 129.036 17.3209C 128.462 16.7711 128.017 16.1328 127.7 15.4062C 127.403 14.66 127.254 13.845 127.254 12.9612L 131.412 12.6667C 131.412 14.3359 132.303 15.1705 134.084 15.1705C 134.916 15.1705 135.539 14.984 135.955 14.6109C 136.39 14.2181 136.608 13.7664 136.608 13.2558C 136.608 12.7845 136.381 12.4212 135.925 12.1659C 135.47 11.9106 134.896 11.6749 134.203 11.4589C 133.53 11.2429 132.797 11.0171 132.006 10.7814C 131.214 10.5457 130.471 10.2217 129.778 9.80931C 129.105 9.37727 128.541 8.81758 128.086 8.13024C 127.631 7.4429 127.403 6.54936 127.403 5.44962Z" fill="#E52228"/>
<path d="M 127.403 5.44962C 127.403 4.74264 127.551 4.07494 127.848 3.44652C 128.165 2.79846 128.61 2.23877 129.185 1.76745C 129.759 1.27649 130.452 0.88373 131.263 0.589156C 132.095 0.294583 133.035 0.147296 134.084 0.147296C 135.094 0.147296 135.995 0.294583 136.786 0.589156C 137.598 0.88373 138.281 1.29613 138.835 1.82636C 139.409 2.3566 139.845 2.98502 140.142 3.71164C 140.459 4.41861 140.617 5.19432 140.617 6.03877L 136.46 6.33334C 136.46 5.58709 136.252 5.00776 135.836 4.59536C 135.42 4.18295 134.836 3.97675 134.084 3.97675C 133.411 3.97675 132.867 4.16331 132.451 4.53644C 132.055 4.88993 131.857 5.29251 131.857 5.74419C 131.857 6.19587 132.085 6.53954 132.54 6.7752C 132.995 7.01086 133.56 7.2367 134.233 7.45272C 134.926 7.6491 135.668 7.86512 136.46 8.10078C 137.252 8.33644 137.984 8.67029 138.657 9.10233C 139.35 9.53437 139.924 10.1039 140.379 10.8109C 140.835 11.5178 141.062 12.431 141.062 13.5504C 141.062 14.2966 140.904 15.0036 140.587 15.6713C 140.29 16.3194 139.845 16.8889 139.251 17.3798C 138.657 17.8708 137.925 18.2636 137.054 18.5581C 136.183 18.8527 135.193 19 134.084 19C 133.015 19 132.055 18.8527 131.204 18.5581C 130.353 18.2636 129.63 17.8512 129.036 17.3209C 128.462 16.7711 128.017 16.1328 127.7 15.4062C 127.403 14.66 127.254 13.845 127.254 12.9612L 131.412 12.6667C 131.412 14.3359 132.303 15.1705 134.084 15.1705C 134.916 15.1705 135.539 14.984 135.955 14.6109C 136.39 14.2181 136.608 13.7664 136.608 13.2558C 136.608 12.7845 136.381 12.4212 135.925 12.1659C 135.47 11.9106 134.896 11.6749 134.203 11.4589C 133.53 11.2429 132.797 11.0171 132.006 10.7814C 131.214 10.5457 130.471 10.2217 129.778 9.80931C 129.105 9.37727 128.541 8.81758 128.086 8.13024C 127.631 7.4429 127.403 6.54936 127.403 5.44962Z" fill="#333333"/>
<path fill-rule="evenodd" clip-rule="evenodd" d="M 91.2625 13.138C 91.7576 11.9989 92.0051 10.7618 92.0051 9.42635C 92.0051 8.1106 91.7576 6.88322 91.2625 5.74418C 90.7873 4.58553 90.1345 3.58398 89.303 2.73954C 88.4715 1.87545 87.4913 1.20776 86.3633 0.736448C 85.2543 0.245483 84.0664 0 82.7997 0C 81.5331 0 80.3352 0.245483 79.2062 0.736448C 78.0982 1.20776 77.128 1.87545 76.2965 2.73954C 75.465 3.58398 74.8022 4.58553 74.3071 5.74418C 73.8319 6.88322 73.5943 8.1106 73.5943 9.42635C 73.5943 10.7618 73.8319 11.9989 74.3071 13.138C 74.8022 14.277 75.465 15.2785 76.2965 16.1426C 77.128 16.9871 78.0982 17.6548 79.2062 18.1457C 80.3352 18.617 81.5331 18.8527 82.7997 18.8527C 84.0664 18.8527 85.2543 18.617 86.3633 18.1457C 87.4913 17.6548 88.4715 16.9871 89.303 16.1426C 90.1345 15.2785 90.7873 14.277 91.2625 13.138ZM 80.3519 13.662L 88.0252 9.26715L 80.3519 4.87231L 80.3519 13.662Z" fill="#E52228"/>
<path fill-rule="evenodd" clip-rule="evenodd" d="M 91.2625 13.138C 91.7576 11.9989 92.0051 10.7618 92.0051 9.42635C 92.0051 8.1106 91.7576 6.88322 91.2625 5.74418C 90.7873 4.58553 90.1345 3.58398 89.303 2.73954C 88.4715 1.87545 87.4913 1.20776 86.3633 0.736448C 85.2543 0.245483 84.0664 0 82.7997 0C 81.5331 0 80.3352 0.245483 79.2062 0.736448C 78.0982 1.20776 77.128 1.87545 76.2965 2.73954C 75.465 3.58398 74.8022 4.58553 74.3071 5.74418C 73.8319 6.88322 73.5943 8.1106 73.5943 9.42635C 73.5943 10.7618 73.8319 11.9989 74.3071 13.138C 74.8022 14.277 75.465 15.2785 76.2965 16.1426C 77.128 16.9871 78.0982 17.6548 79.2062 18.1457C 80.3352 18.617 81.5331 18.8527 82.7997 18.8527C 84.0664 18.8527 85.2543 18.617 86.3633 18.1457C 87.4913 17.6548 88.4715 16.9871 89.303 16.1426C 90.1345 15.2785 90.7873 14.277 91.2625 13.138ZM 80.3519 13.662L 88.0252 9.26715L 80.3519 4.87231L 80.3519 13.662Z" fill="#333333"/>
</g>
</g>
</g>
</svg>
